X: 23883
T: Llwydcoed
R: polka
M: 2/4
K: Gmajor
|:g>g fg|ed BG|E/F/G AB|GF G2:|
d>d Bd|e>f ge|d>d Bd|ed A2|
G>A Bd|e>f gf/e/|d>c BA|GF G2||
|:g3 g f2 g2|e2 d2 B2 G2|EF G2 A2 B2|G2 F2 G4:|
d3 d B2 d2|e2 f2 g2 e2|d3 d B2 d2|e d3 A4|
G3 A B2 d2|e2 f2 g2 fe|d3 c BcBA|G2 F2 G4||

